X: 40528
T: Tommy Maguire's
R: jig
M: 6/8
K: Dmajor
|:f2 d g2 d|fed edB|AdB AFD|EFE EFG|
AFA fed|afd edB|AdB AFD|1 EFE De/f/g:|2 EFE DFA||
|:dcd f^ga|e2 A A2 f|ecA gfe|dBG EFG|
AFA DFA|dcd efg|afd e/f/gc|1 fdc d2 A:|2 fdc dag||

